icons-dark/mimetypes/16/text-wiki.svg

<?xml version="1.0" encoding="UTF-8" standalone="no"?>
<!-- Created with Inkscape (http://www.inkscape.org/) -->

<svg
   xmlns:dc="http://purl.org/dc/elements/1.1/"
   xmlns:cc="http://creativecommons.org/ns#"
   xmlns:rdf="http://www.w3.org/1999/02/22-rdf-syntax-ns#"
   xmlns:svg="http://www.w3.org/2000/svg"
   xmlns="http://www.w3.org/2000/svg"
   xmlns:sodipodi="http://sodipodi.sourceforge.net/DTD/sodipodi-0.dtd"
   xmlns:inkscape="http://www.inkscape.org/namespaces/inkscape"
   width="16"
   version="1.1"
   height="16"
   viewBox="0 0 16 16"
   id="svg2"
   inkscape:version="0.91 r13725"
   sodipodi:docname="text-wiki16.svg">
  <sodipodi:namedview
     pagecolor="#ffffff"
     bordercolor="#666666"
     borderopacity="1"
     objecttolerance="10"
     gridtolerance="10"
     guidetolerance="10"
     inkscape:pageopacity="0"
     inkscape:pageshadow="2"
     inkscape:window-width="640"
     inkscape:window-height="480"
     id="namedview7"
     showgrid="false"
     inkscape:zoom="14.75"
     inkscape:cx="8"
     inkscape:cy="8"
     inkscape:window-x="0"
     inkscape:window-y="24"
     inkscape:window-maximized="0"
     inkscape:current-layer="svg2" />
  <defs
     id="defs4" />
  <metadata
     id="metadata7">
    <rdf:RDF>
      <cc:Work
         rdf:about="">
        <dc:format>image/svg+xml</dc:format>
        <dc:type
           rdf:resource="http://purl.org/dc/dcmitype/StillImage" />
        <dc:title></dc:title>
      </cc:Work>
    </rdf:RDF>
  </metadata>
  <path
     inkscape:label="Capa 1"
     inkscape:groupmode="layer"
     style="fill:#f9b425;color:#000000;clip-rule:nonzero;display:inline;overflow:visible;visibility:visible;opacity:1;isolation:auto;mix-blend-mode:normal;color-interpolation:sRGB;color-interpolation-filters:linearRGB;solid-color:#000000;solid-opacity:1;fill-opacity:1;fill-rule:nonzero;stroke-width:1;stroke-linecap:butt;stroke-linejoin:miter;stroke-miterlimit:4;stroke-dasharray:none;stroke-dashoffset:0;stroke-opacity:1;filter-blend-mode:normal;filter-gaussianBlur-deviation:0;color-rendering:auto;image-rendering:auto;shape-rendering:auto;text-rendering:auto;enable-background:accumulate"
     id="rect4112"
     d="M 6.5 2 C 5.115 2 4 3.115 4 4.5 C 4 5.885 5.115 7 6.5 7 C 7.885 7 9 5.885 9 4.5 C 9 3.115 7.885 2 6.5 2 z M 6.5 3 C 7.331 3 8 3.669 8 4.5 C 8 5.331 7.331 6 6.5 6 C 5.669 6 5 5.331 5 4.5 C 5 3.669 5.669 3 6.5 3 z M 12 4 C 10.892 4 10 4.892 10 6 C 10 7.108 10.892 8 12 8 C 13.108 8 14 7.108 14 6 C 14 4.892 13.108 4 12 4 z M 12 5 C 12.554 5 13 5.446 13 6 C 13 6.554 12.554 7 12 7 C 11.446 7 11 6.554 11 6 C 11 5.446 11.446 5 12 5 z M 6.5 8 C 4.0070124 8 2 10.007 2 12.5 L 2 13 L 2 14 L 2.2753906 14 L 3 14 L 3.3457031 14 L 9.6542969 14 L 10.724609 14 L 11 14 L 11 13 L 11 12.5 C 11 10.007 8.9929876 8 6.5 8 z M 6.5 9 C 8.4389876 9 10 10.561 10 12.5 L 10 13 L 3 13 L 3 12.5 C 3 10.561 4.5610124 9 6.5 9 z M 12 9 C 11.445274 9 10.933115 9.1595219 10.488281 9.4199219 C 10.731419 9.6568219 10.95369 9.9149656 11.144531 10.197266 C 11.404642 10.073866 11.69198 10 12 10 C 13.108 10 14 10.892 14 12 L 11.900391 12 C 11.965501 12.3231 12 12.6572 12 13 L 13.724609 13 L 14.818359 13 L 15 13 L 15 12 C 15 10.338 13.662 9 12 9 z " />
</svg>

<svg width="16" xmlns="http://www.w3.org/2000/svg" height="16" viewBox="0 0 16 16">
 <path color-interpolation-filters="linearRGB" color="#000000" image-rendering="auto" color-rendering="auto" d="m6.5 2c-1.385 0-2.5 1.115-2.5 2.5 0 1.385 1.115 2.5 2.5 2.5 1.385 0 2.5-1.115 2.5-2.5 0-1.385-1.115-2.5-2.5-2.5m0 1c.831 0 1.5.669 1.5 1.5 0 .831-.669 1.5-1.5 1.5-.831 0-1.5-.669-1.5-1.5 0-.831.669-1.5 1.5-1.5m5.5 1c-1.108 0-2 .892-2 2 0 1.108.892 2 2 2 1.108 0 2-.892 2-2 0-1.108-.892-2-2-2m0 1c.554 0 1 .446 1 1 0 .554-.446 1-1 1-.554 0-1-.446-1-1 0-.554.446-1 1-1m-5.5 3c-2.493 0-4.5 2.01-4.5 4.5v1.5h9v-1.5c0-2.493-2.01-4.5-4.5-4.5m0 1c1.939 0 3.5 1.561 3.5 3.5v.5h-7v-.5c0-1.939 1.561-3.5 3.5-3.5m5.5 0c-.555 0-1.067.16-1.512.42.243.237.465.495.656.777.26-.123.547-.197.855-.197 1.108 0 2 .892 2 2h-2.1c.065.323.1.657.1 1h3v-1c0-1.662-1.338-3-3-3" color-interpolation="sRGB" text-rendering="auto" fill="#f9b425" shape-rendering="auto"/>
</svg>
